packages/astro-components-stencil/src/icons/redeem.svg

<svg xmlns="http://www.w3.org/2000/svg" viewBox="0 0 24 24"><g xmlns="http://www.w3.org/2000/svg" id="redeem" fill-rule="nonzero">
            <path d="M20 6h-2.18c.11-.31.18-.65.18-1a2.996 2.996 0 00-5.5-1.65l-.5.67-.5-.68C10.96 2.54 10.05 2 9 2 7.34 2 6 3.34 6 5c0 .35.07.69.18 1H4c-1.11 0-1.99.89-1.99 2L2 19c0 1.11.89 2 2 2h16c1.11 0 2-.89 2-2V8c0-1.11-.89-2-2-2zm-5-2c.55 0 1 .45 1 1s-.45 1-1 1-1-.45-1-1 .45-1 1-1zM9 4c.55 0 1 .45 1 1s-.45 1-1 1-1-.45-1-1 .45-1 1-1zm10 15H5c-.55 0-1-.45-1-1v-1h16v1c0 .55-.45 1-1 1zm1-5H4V9c0-.55.45-1 1-1h4.08L7.6 10.02a.995.995 0 00.22 1.4c.44.32 1.07.22 1.39-.22L12 7.4l2.79 3.8c.32.44.95.54 1.39.22.45-.32.55-.95.22-1.4L14.92 8H19c.55 0 1 .45 1 1v5z"/>
        </g></svg>

<svg width="24" height="24" viewBox="0 0 24 24" fill="none" xmlns="http://www.w3.org/2000/svg">
<path fill-rule="evenodd" clip-rule="evenodd" d="M20 6H17.82C17.93 5.69 18 5.35 18 5C18 3.34 16.66 2 15 2C13.95 2 13.04 2.54 12.5 3.35L12 4.02L11.5 3.34C10.96 2.54 10.05 2 9 2C7.34 2 6 3.34 6 5C6 5.35 6.07 5.69 6.18 6H4C2.89 6 2.01 6.89 2.01 8L2 19C2 20.11 2.89 21 4 21H20C21.11 21 22 20.11 22 19V8C22 6.89 21.11 6 20 6ZM15 4C15.55 4 16 4.45 16 5C16 5.55 15.55 6 15 6C14.45 6 14 5.55 14 5C14 4.45 14.45 4 15 4ZM10 5C10 4.45 9.55 4 9 4C8.45 4 8 4.45 8 5C8 5.55 8.45 6 9 6C9.55 6 10 5.55 10 5ZM5 19C4.45 19 4 18.55 4 18V17H20V18C20 18.55 19.55 19 19 19H5ZM4 9V14H20V9C20 8.45 19.55 8 19 8H14.92L16.4 10.02C16.73 10.47 16.63 11.1 16.18 11.42C15.74 11.74 15.11 11.64 14.79 11.2L12 7.4L9.21 11.2C8.89 11.64 8.26 11.74 7.82 11.42C7.37 11.1 7.27 10.47 7.6 10.02L9.08 8H5C4.45 8 4 8.45 4 9Z" fill="black"/>
</svg>
